X:1
T:Title
%%score 1 2 3 4
L:1/8
M:3/2
K:C
V:1 treble nm="Part_1"
V:2 treble nm="Part_2"
V:3 treble-8 nm="Part_3"
V:4 treble-8 nm="Part_4"
V:1
 c12- | c8 B4 | c4 A4 _B4 | _B8 A2 B2 | G4 F6 D2 | E4 z2 A2 G2 A2 | c2 A2 _B2 A2 G2 F2 | E8 E4 | %8
 C4 D8 | E12 | z12 | A4 c2 c2 c2 B2 | A4 z4 A4 | F8 F4 | C8 C4 | D4 E8 | F4 z2 F2 A2 _B2 | %17
 c2 A2 d2 c2 A2 c2 | _B2 G2 A2 F4 G2 | A4 G6 F2 | E4 D8 | C8 z4 | c4 c4 c4 | d8 d4 | c8 _B4 | %25
 A4 G6 F2 | F4 z2 A2 G2 A2 | _B2 A2 F4 G4 | G4 z2 c2 B2 c2 | d2 c2 A2 B2 c2 d2 | c4 B6 A2 | %31
 c4 z4 z4 | c12- | c12 | _B8 c4 | A6 d2 c2 _B2 | A4 G6 E2 | F4 E8 | D4 z4 A4 | _B8 B4 | A4 _B4 G4 | %41
 F4 z4 _B4 | _B4 A6 G2 | G4 F4 G2 E2 | G12 | z12 | c4 A4 F4 | E2 F2 A2 G4 F2 | E4 D4 E2 C2 | %49
 E4 z4 E4 | F8 C4 | F4 E6 D2 | E4 z4 G4 | A2 A2 A2 A2 A2 A2 | E4 z4 c4 | c2 c2 d2 c2 c2 _B2 | A12 | %57
 z12 | G12 | G8 E4 | D12- | D8 D4 | A8 G4 | c4 _B8 | A4 z4 A4 | B4 ^c8 | d4 z4 d4 | B2 c2 d6 c2 | %68
 B4 A6 G2 | G12 | z12 | A12 | d8 c4- | c4 A8 | G4 A4 F4 | E4 z4 c4 | c2 A2 c2 _B2 G2 A2 | %77
 E4 A2 G4 F2 | E2 A2 G2 E2 F2 E2 | C4 z4 z4 | A4 A4 A4 | c4 _B2 A4 G2 | F8 z4 | D4 D4 D4 | G8 G4 | %85
 c4 z4 c2 d2 | A6 c2 _B2 A2 | c4 A4 F4 | z4 d4 c4 | A4 z4 F4 | E4 G4 C4 | z4 A4 G2 F2 | A12- | %93
 A12 | _B12- | B12 | d8 c4- | c4 _B8 | A12- | A12 | c8 c4 | c4 G4 c2 _B2 | A2 _B2 c2 d4 A2 | %103
 d2 c2 A2 _B2 c2 B2- | B2 A4 _B2 G2 F2 | A4 z4 _B4 | c2 c2 c2 _B2 A2 G2 | F4 z4 z4 | %108
 A4 c2 c2 c2 c2 | c2 d2 A6 G2 | A2 _B2 d2 c2 B2 A2 | G4 z4 c4 | c4 d8 | G4 c2 _B2 A2 G2 | %114
 F4 E6 D2 | F4 z4 E4 | D4 z4 z4 | A6 G2 A2 _B2 | c2 d2 A2 _B2 c4 | _B4 G4 c2 B2 | G6 A2 F2 E2 | %121
 G4 z4 z4 | F8 E4 | D4 z4 E4 | D2 E2 F4 G2 A2 | F4 E6 D2 | F12 | z12 | z4 z4 G4 | A4 B6 A2 | %130
 c4 z4 c4 | d2 c2 c2 A2 c2 _B2 | G2 A2 A2 F2 E2 F2 | G2 A2 E2 C2 D2 E2 | C4 z4 F4 | G4 F2 E4 D2 | %136
 D4 C6 B,2 | D12- | D8 z4 | ^F12 | G8 _B4 | _B4 A6 G2 | G4 F4 G2 A2 | _B4 A6 G2 | G4 z4 G4 | %145
 E4 F8 | E4 D8 | C8 B,4 | C4 D8 | E4 z4 A4 | G4 d6 c2 | B4 A6 G2 | G4 z2 d2 d2 B2 | %153
 c2 B2 G2 c2 B2 A2 | c12 | z12 | c12- | c8 c4 | _B4 A8- | A8 A4 | G4 z4 _B2 c2 | d4 c8- | c8 _B4 | %163
 d12- | d4 d8 | A4 c6 A2 | _B4 A4 G2 F2 | E12 | z12 | z4 z4 _B4 | c4 c4 c4 | _B4 G4 A2 B2 | %172
 G4 z4 E4 | G4 E8 | C4 z4 c4 | c8 c4 | A4 F4 z4 | A4 c4 c4 | z4 c4 z4 | c4 c4 z4 | c4 A4 z4 | %181
 A4 F4 z4 | A2 B2 c4 B4 | A4 d6 c2 | c4 B4 G4 | c4 B8 | c12 |] %187
V:2
 c8 c4 | A4 F4 G4 | A8 G4 | G8 F4 | E4 D8 | C8 C4 | C4 D8 | E4 z2 c2 c2 B2 | A2 G2 B2 A2 G2 F2 | %9
 E4 z4 z4 | A4 c2 c2 c2 B2 | A4 z4 z4 | D8 D4 | A4 d8 | c4 A2 _B2 c2 B2 | A6 _B2 A2 G2 | F8 F4 | %17
 C4 F8 | G4 z4 A2 _B2 | c2 d2 _B2 G2 c2 B2 | G6 c2 B2 A2 | c8 z4 | A4 A4 A4 | _B8 B4 | A8 G4 | %25
 F4 E6 D2 | F4 z2 F2 E2 F2 | G2 F2 D4 E4 | E4 z4 E4 | D4 F8 | E4 D8 | C8 z4 | C8 C4 | F4 A8 | %34
 G4 z4 G4 | c4 _B4 A4 | E8 F2 G2 | A4 G6 E2 | F8 z4 | G6 F2 G2 E2 | D4 z4 _B4 | _B4 G4 F4 | %42
 G4 F2 E4 D2 | D4 C6 B,2 | D4 z4 z4 | G4 G4 G4 | A2 _B2 c4 d4 | c4 _B6 A2 | A4 G6 F2 | %49
 A4 z2 G2 A2 _B2 | A2 G2 A2 _B2 c2 A2 | d2 c4 A2 c2 _B2 | G2 A4 c2 B2 A2 | c4 z4 c4 | %54
 A2 A2 A2 A2 A2 A2 | E4 z4 z4 | c4 c2 c2 d2 c2 | c2 _B2 A4 z4 | _B12 | _B8 G4 | _B8 A4 | A4 d8 | %62
 c4 z4 _B4 | A8 G4 | F4 z4 F4 | G4 E8 | D8 D4 | G12- | G4 ^F8 | G12 | z12 | c8 A4- | A4 F8 | %73
 G4 c8 | c2 A2 d2 c2 _B2 A2 | G2 A2 c2 _B2 G2 A2 | E4 C8 | z4 z4 c4 | G4 c2 B2 A4 | G4 F2 E4 D2 | %80
 F6 E2 F2 D2 | C4 z4 z4 | A4 A4 A4 | _B12 | _B6 A2 B2 G2 | F4 G2 _B2 A2 G2 | F4 E6 D2 | F4 z4 c4 | %88
 A4 F4 z4 | d4 c4 A4 | z4 E4 G4 | C4 z2 F2 E2 D2 | F12- | F12 | D12- | D12 | G12- | G8 E4 | %98
 G4 F8- | F8 z4 | G8 G4 | G2 A2 c2 _B2 A2 G2 | F4 D4 A4 | A4 z4 G4 | F4 E6 D2 | C6 F2 E2 D2 | %106
 F4 z4 A4 | c2 c2 c2 _B2 A2 G2 | F4 z4 z4 | A4 c2 c2 c2 c2 | c2 d2 A4 G2 F2 | E2 F2 A2 G2 E2 F2 | %112
 E4 D8 | C4 z4 c4 | c2 G2 c2 _B2 G2 A2 | c2 _B4 A2 G2 A2 | F4 E6 F2 | D4 z4 D4 | E4 F8 | G12 | %120
 z12 | B8 c4 | d8 c4 | _B4 A8 | G4 d8 | c4 B2 B2 c2 A2 | c4 z4 A4 | G8 A4 | _B4 A2 G4 F2 | %129
 F4 E6 D2 | F12- | F12 | z12 | z4 z4 G4 | A4 _B6 A2 | c4 A2 _B2 c2 B2 | G4 F6 E2 | G12 | z12 | %139
 A12 | _B8 G4 | G4 F4 _B4 | _B4 A6 F2 | G4 F6 E2 | G4 z4 E4 | G4 A6 G2 | G2 A2 c2 B2 B2 A2 | %147
 c4 z4 d4 | c4 B6 A2 | G4 A4 F4 | E4 z4 D4 | G4 F6 E2 | G8 G4 | E4 D8 | C12- | C12 | E12- | E8 E4 | %158
 z4 D8 | D8 D4 | E2 F2 G4 F4 | E8 E4 | z4 A4 G4 | F4 F8- | F8 D4 | E8 E4 | D4 z4 A2 _B2 | %167
 c4 c4 c4 | _B4 G4 A2 B2 | G12 | z12 | z12 | E8 G4 | E4 C4 z4 | c8 A4 | G4 A8 | E4 z4 A4 | %177
 c4 c4 z4 | c4 z4 c4 | c4 z4 c4 | A4 z4 A4 | F4 z4 F4 | C4 z4 E4 | F4 G6 F2 | A4 D4 E2 F2 | %185
 G4 E6 D2 | F12 |] %187
V:3
[K:F] z12 | z12 | z12 | z12 | z12 | z12 | z12 | z12 | z12 | z12 | z12 | z12 | z12 | z12 | z12 | %15
 z12 | z12 | z12 | z12 | z12 | z12 | z12 | z12 | z12 | z12 | z12 | z12 | z12 | z12 | z12 | z12 | %31
 z12 | F12- | F12 | G12 | F12 | c12- | c12 | d12 | G12 | d12- | d12 | G8 F4 | B4 A8 | G12- | G12 | %46
 F12 | c8 d4 | c4 B8 | A12 | F12 | F4 c4 F4 | c4 A4 G4 | F12 | A12- | A12 | F12- | F12 | z12 | %59
 z12 | z12 | z12 | z12 | z12 | z12 | z12 | z12 | z12 | z12 | z12 | z12 | f12- | f12 | c12- | %74
 c4 F8 | c12- | c12 | c12- | c12 | c12 | F12 | F12- | F12 | G12- | G12 | A12- | A4 G8 | F12- | %88
 F12 | F12 | c12- | c12 | F12- | F12 | G12- | G12 | G12 | G12 | d12- | d12 | c12- | c12 | f12- | %103
 f8 e4 | d4 c4 B4 | A8 G4 | F12- | F12 | F12 | F12 | F12 | c12- | c4 B8 | c12- | c12 | F4 G4 A4 | %116
 d4 c8 | d12 | A12 | G8 G4 | B4 A8 | G8 A4 | B8 c4 | d8 c4 | B8 A4- | A4 G8 | F12 | E8 F4 | G8 B4 | %129
 A4 G8 | F12- | F12 | c4 F4 c4 | c8 B4 | c4 d8 | c8 c4 | B4 A8 | G12- | G12 | z12 | z12 | z12 | %142
 z12 | z12 | z12 | z12 | z12 | z12 | z12 | z12 | z12 | z12 | z12 | z12 | z12 | z12 | c12- | c12 | %158
 f12- | f12 | c8 d4 | A12- | A12 | B12- | B12 | c12 | d12 | c12 | G12- | G12 | F12 | G12 | c12- | %173
 c12 | c12- | c4 F8 | A12 | F12- | F12 | F12- | F12 | F12 | F8 G4 | A4 B8 | A4 G8 | G12 | F12 |] %187
V:4
[K:F] z12 | z12 | z12 | z12 | z12 | z12 | z12 | z12 | z12 | z12 | z12 | z12 | z12 | z12 | z12 | %15
 z12 | z12 | z12 | z12 | z12 | z12 | z12 | z12 | z12 | z12 | z12 | z12 | z12 | z12 | z12 | z12 | %31
 z12 | c12- | c4 f4 e4 | d8 e4 | f4 d4 c4 | z4 c4 A4 | F4 c4 A4 | z4 B6 c2 | d4 d8 | z4 G8 | B12 | %42
 d8 A4 | z4 F2 G2 A4 | B4 d6 c2 | =B4 B6 A2 | c12 | z12 | A4 B4 G4 | c4 c8 | c8 c4 | c4 z4 c4 | %52
 A2 B2 c4 d4 | f4 c8 | c8 c4 | c12 | f12- | f12 | z12 | z12 | z12 | z12 | z12 | z12 | z12 | z12 | %66
 z12 | z12 | z12 | z12 | z12 | F12- | F12 | e12- | e4 f4 d4 | c4 F8 | A8 A4 | A12- | A12 | z4 A8 | %80
 c8 c4 | f4 f8 | c12 | z4 z4 c4 | d4 d6 e2 | c4 c8 | c4 d4 B4 | z4 c8 | c8 c4 | c12 | A4 z4 z4 | %91
 F12 | c12- | c12 | z12 | z4 z4 G4 | B4 d8- | d8 d4 | d12 | z4 z4 d4 | e12- | e8 e4 | d4 B6 F2 | %103
 F4 F4 z4 | z12 | F8 G4 | A4 c8 | c8 c4 | c4 f4 c2 f2 | f4 c8- | c8 c4 | z4 F8 | A4 B4 G4 | z4 A8 | %114
 A8 A4 | c2 f2 e2 d2 c4 | B4 c4 A4 | z4 f6 d2 | c4 c6 B2 | d4 _e6 d2 | d4 c6 =B2 | d12- | d8 e4 | %123
 f8 e4 | z4 d6 e2 | c4 =B6 A2 | c8 d4 | e12 | d8 d4 | d4 g8 | d8 c4 | c12- | c8 A4 | z4 A4 z4 | %134
 A4 G4 F4 | z4 A8 | B4 c4 A4 | B12- | B12 | z12 | z12 | z12 | z12 | z12 | z12 | z12 | z12 | z12 | %148
 z12 | z12 | z12 | z12 | z12 | z12 | z12 | z12 | A12- | A12 | F12- | F12 | z12 | z4 c8 | e12 | %163
 d12- | d8 d4 | c4 A4 z4 | G4 F6 G2 | A8 A4 | d4 d8- | d8 _e4 | f8 _e4 | d12 | z12 | z12 | F8 F4 | %175
 c4 c8 | c8 f4 | f4 c4 f4 | f12- | f4 f8 | f8 d4 | c4 c8 | c8 c4 | c4 G8 | c4 d6 c2 | c4 =B6 A2 | %186
 c12 |] %187

